X: 1011
T: Her Tel Saçı...
C: Kaptanzâde Ali Rıza Bey
O: Turkey
F: http://compmusic.upf.edu/node/140
N: kurdilihicazkar--sarki--senginsemai--her_tel--kaptanzade_ali_riza_bey
N: makam= kurdilihicazkar
N: form= sarki
N: usul= senginsemai = 6/4
M: 6/4
L: 1/16
K: C _B _e _A 
Q: 1/4=66
%%MIDI tuningsystem comma53
.B4 .c4 .d4 e3/2d/ce d4 (3d2e2f2  | \
w:  ARANAĞME  | 
g3f e3d c3B c3/2B/cd e4 (3B2c2d2  | 
w:   | 
e3d c3B A3G G2(3AGA F8  | G2GA c3B A3G F2AG {A}G4 dcBA  | 
w:   |   | 
.B4 .c4 .d4 e3/2d/ce d4 (3d2e2f2  | \
w:  ARANAĞME  | 
g3f e3d c3B c3/2B/cd e4 (3B2c2d2  | 
w:   | 
e3d c3B A3G G2(3AGA F8  | G2GA c3B A3G F2AG {A}G3A/B/ c/d/e/f/g2  | 
w:   |   | 
c4 {f}g4 g2f_2/4e f_3/4eed {e}d6z2  | \
w:  Her  *  tel  sa *  *  çı  *  *  *  *  bir   | 
d2ed c4 d3_3/4e f2ed d3d _efg2  | 
w:  ter  *  *  *  du *  da *  *  ğın  SAZ  | 
f2g6 a3g g2f2 feed edef  | g6z2 .g.e.c.e .d.B.c.A G3A/B/ c/d/e/f/g2  | 
w:  değ *  di *  ği  *  yer  |  dir   SAZ  | 
c4 {f}g4 g2f_2/4e f_3/4eed {e}d6z2  | \
w:  Her  *  tel  sa *  *  çı  *  *  *  *  bir   | 
d2ed c4 d3_3/4e f2ed d3d _efg2  | 
w:  ter  *  *  *  du *  da *  *  ğın  SAZ  | 
f2g6 a3g g2f2 feed edef  | g6z2 edfd (3edc(3_1/4Bc^c d4 =c/B/c/d/e/d/e/f/  | 
w:  değ *  di *  ği  *  yer  |  dir   SAZ  | 
g4 e4 c4 b4 _1/4a2{c'}b_a g2{b}ag  | \
w:  Us lan ma dı  yaş  | 
f2{a}gf e4 defg fedc .B2.c2 .B2.c2  | 
w:  lan *  *  *  *  ma *  *  *  dı  *  *  *  hay ret  SAZ  | 
B3A G3F GABc d3c B3G A3F  | G6z2 edfd (3edc(3_1/4Bc^c d4 =c/B/c/d/e/d/e/f/  | 
w:  se *  *  *  ne *  *  *  *  *  ler  |  dir   SAZ  | 
g4 e4 c4 b4 _1/4a2{c'}b_a g2{b}ag  | \
w:  Us lan ma dı  yaş  | 
f2{a}gf e4 defg fedc .B2.c2 .B2.c2  | 
w:  lan *  *  *  *  ma *  *  *  dı  *  *  *  hay ret  SAZ  | 
B3A G3F GABc d3c B3G A3F  | G6z2 f3g a3/2g/f_1/4e f6z2  | 
w:  se *  *  *  ne *  *  *  *  *  ler  |  dir   SAZ  | 
{_1/4e}f4 f4 e2f2 agfe f6z2  | f2{a}gf _1/4e2f2 g2fe b2ag {a}g3d _efg2  | 
w:  *  Bir  gül  ki  *  he *  *  *  nüz   |  gon *  *  *  *  *  ca  *  *  gi *  *  *  bi  SAZ  | 
f2g6 a3g g2f2 feed edef  | g6z2 f3g agf_1/4e f6z2  | 
w:  râ *  yi *  ha *  ver  |  dir   SAZ  | 
{_1/4e}f4 f4 e2f2 agfe f6z2  | f2{a}gf _1/4e2f2 g2fe b2ag {a}g3d _efg2  | 
w:  *  Bir  gül  ki  *  he *  *  *  nüz   |  gon *  *  *  *  *  ca  *  *  gi *  *  *  bi  SAZ  | 
f2g6 a3g g2f2 feed edef  | g6z2 edfd (3edc(3_1/4Bc^c d4 =c/B/c/d/e/d/e/f/  | 
w:  râ *  yi *  ha *  ver  |  dir   SAZ  | 
g4 e4 c4 b4 _1/4a2{c'}b_a g2{b}ag  | \
w:  Us lan ma dı  yaş  | 
f2{a}gf e4 defg fedc .B2.c2 .B2.c2  | 
w:  lan *  *  *  *  ma *  *  *  dı  *  *  *  hay ret  SAZ  | 
B3A G3F GABc d3c B3G A3F  | G6z2 edfd (3edc(3_1/4Bc^c d4 =c/B/c/d/e/d/e/f/  | 
w:  se *  *  *  ne *  *  *  *  *  ler  |  dir   SAZ  | 
g4 e4 c4 b4 _1/4a2{c'}b_a g2{b}ag  | \
w:  Us lan ma dı  yaş  | 
f2{a}gf e4 defg fedc .B2.c2 .B2.c2  | 
w:  lan *  *  *  *  ma *  *  *  dı  *  *  *  hay ret  SAZ  | 
B3A G3F GABc d3c B3G A3F  | G6z2 |
w:  se *  *  *  ne *  *  *  *  *  ler  |  dir    | 


